src/actions/24/gnumeric-bucket.svg

<svg xmlns="http://www.w3.org/2000/svg" viewBox="0 0 24 24">
  <defs id="defs3051">
    <style type="text/css" id="current-color-scheme">
      .ColorScheme-Text {
        color:#363636;
      }
      </style>
  </defs>
 <path style="fill:currentColor;fill-opacity:1;stroke:none" 
     d="M 12.996094 4.0019531 C 10.084881 6.9214265 7.1639221 9.8282666 4.2539062 12.738281 L 4.2558594 12.742188 L 4.0058594 12.992188 L 4 12.992188 L 4 17 L 8.0078125 17 C 10.912799 14.097947 14.007775 10.997369 16.998047 8.0039062 L 13 4.0039062 L 12.996094 4.0019531 z M 12.412109 5.9980469 L 15 8.5878906 L 10.732422 12.855469 L 8.1445312 10.265625 L 12.412109 5.9980469 z M 17.5 9 C 17.01354 10.7025 15.821805 12.166091 15.296875 13.337891 C 15.113175 13.686291 15 14.0773 15 14.5 C 15 15.885 16.115 17 17.5 17 C 18.885 17 20 15.885 20 14.5 C 20 14.0773 19.886835 13.686291 19.703125 13.337891 C 19.178205 12.166091 17.98645 10.7025 17.5 9 z M 7.4375 10.972656 L 10.025391 13.5625 L 9.3183594 14.269531 L 6.7285156 11.679688 C 6.9659019 11.445071 7.2013442 11.208507 7.4375 10.972656 z M 6.0214844 12.386719 L 8.6113281 14.976562 L 8.6152344 14.978516 L 7.9082031 15.685547 L 7.9042969 15.683594 L 5.3144531 13.09375 L 6.0214844 12.386719 z M 4 19 L 4 20 L 20 20 L 20 19 L 4 19 z "
     class="ColorScheme-Text"
     />
</svg>

<svg xmlns="http://www.w3.org/2000/svg" viewBox="0 0 24 24">
    <path d="M12.996 4.002c-2.911 2.92-5.832 5.826-8.742 8.736l.002.004-.25.25H4V17h4.008c2.905-2.902 6-6.003 8.99-8.996l-3.998-4-.004-.002zm-.584 1.996L15 8.588l-4.268 4.267-2.587-2.59 4.267-4.267zM17.5 9c-.486 1.703-1.678 3.166-2.203 4.338-.184.348-.297.74-.297 1.162 0 1.385 1.115 2.5 2.5 2.5s2.5-1.115 2.5-2.5c0-.423-.113-.814-.297-1.162-.525-1.172-1.717-2.635-2.203-4.338zM7.438 10.973l2.587 2.59-.707.707-2.59-2.59c.238-.235.473-.471.71-.707zM6.02 12.387l2.59 2.59.004.002-.707.707-.004-.002-2.59-2.59.707-.707zM4 19v1h16v-1H4z" style="fill:currentColor;fill-opacity:1;stroke:none;color:#050505;opacity:.7"/>
</svg>
